X:16
T:Nelson MacNeil
R:reel
C:Paul S. Cranford
O:Cape Breton Island
S:http://www.cranfordpub.com
D:currently unrecorded
B:currently unpublished in book form
Z:psc
H:                                                        copyrights Cranford Publications, SOCAN
L:1/8
Q:333
M:C|
K:Bb
B,DFA B2 FB|A2 FA Bc d2|egf=e fdBd|cABG F2 DC|
B,DFA B2 FB|A2 FA Bc d2|egf=e fgab|[1fdec B2 B z:|[2fdec Bded||
|:cFAc BFDF|Eedc d2 Bf|g^fg=e =fdBd|ecdB cded|
cFAc BFDF|Eedc d2 Bf|g^fg=e =fgab|1fdec Bded:|[2fdec B2 B z|]
